X:39
T:wellington's advance
R:double jig
M:6/8
L:1/8
Q:3/8=135
K:Aminor
E.A.A MA^GA|cBA c2d|~e3 e^fg|dBG G^FG|
E.A.A MA^GA|cBA Bcd|e(3.g.^f.e dcB|c.A.A BAG|
E.A.A MA^GA|cBA c2d|~e3 e^fg|dBG G^FG|
E.A.A MA^GA|cBA Bcd|e(3.g.^f.e dcB|c.A.A A2e|
aea a.ea|aed cBA|BAB ~g3|dBG GBd|
e2a a^ga|e2g g^fg|e(3.g.^f.e dcB|cAG A2e|
aea a.ea|aed cBA|BAB ~g3|dBG GBd|
e2a a^ga|e2g g^fg|e(3.g.^f.e dcB|c.A.A BAG|
